X: 8920
T: Curlews, The
R: reel
M: 4/4
K: Aminor
|:eA A2 ABcd|edBd g3d|(3efg dc BG G2|^FGBd g^fag|
eA A2 ABcd|edBd g3e|=f3d e3d|cAAG EA A2:|
|:(3ABc Bc AE E2|AE E2 ABce|dBAB GD D2|BDGA BdcB|
(3ABc Bc AE E2|AE E2 ABce|dBAB eBdB|cBAG EA A2:|

